X: 24180
T: Lord Frog And Lady Mouse
R: jig
M: 6/8
K: Bminor
|:F|B2 c d2 B|c2 d e2 c|dcB d2 e|f^ef F2 F|B2 c d2 B|
c2 d edc|1 dcB c2 ^A|B3- B2:|2 dcB d2 e|f3- f2||
|:f|f2 g a2 f|fed g2 d|c2 d e2 c|cdB ^ABF|
[1 B2 b b2 f|fed g2 f|fed cB^A|B3- B2:|
[2 B2 b b2 f|bag f2 f|fed cB^A|B3- B2||

